flaticon/hand-gestures/smartphone-2.svg

<svg xmlns="http://www.w3.org/2000/svg" width="32" height="32" viewBox="0 0 24 24">
    <path d="M8.460938 6.800781L9.941406 6.800781C10.21875 6.800781 10.421875 6.601562 10.421875 6.320312L10.421875 4.839844C10.421875 4.558594 10.179688 4.359375 9.941406 4.359375L8.460938 4.359375C8.179688 4.359375 7.980469 4.601562 7.980469 4.839844L7.980469 6.320312C7.980469 6.601562 8.21875 6.800781 8.460938 6.800781zM8.820312 5.199219L9.621094 5.199219 9.621094 6 8.820312 6zM6.378906 4.398438L4.898438 4.398438C4.621094 4.398438 4.421875 4.601562 4.421875 4.839844L4.421875 6.320312C4.421875 6.601562 4.621094 6.800781 4.898438 6.800781L6.339844 6.800781C6.621094 6.800781 6.820312 6.601562 6.859375 6.359375L6.859375 4.878906C6.859375 4.601562 6.621094 4.398438 6.378906 4.398438zM6.019531 6L5.21875 6 5.21875 5.199219 6.019531 5.199219zM8.460938 10.398438L9.941406 10.398438C10.21875 10.398438 10.421875 10.199219 10.421875 9.921875L10.421875 8.441406C10.421875 8.160156 10.179688 7.960938 9.941406 7.960938L8.460938 7.960938C8.179688 7.960938 7.980469 8.199219 7.980469 8.441406L7.980469 9.921875C7.980469 10.199219 8.21875 10.398438 8.460938 10.398438zM8.820312 8.800781L9.621094 8.800781 9.621094 9.601562 8.820312 9.601562zM6.378906 8L4.898438 8C4.621094 8 4.421875 8.199219 4.421875 8.441406L4.421875 9.921875C4.421875 10.199219 4.621094 10.398438 4.898438 10.398438L6.339844 10.398438C6.621094 10.398438 6.820312 10.199219 6.859375 9.960938L6.859375 8.480469C6.859375 8.199219 6.621094 8 6.378906 8zM6.019531 9.601562L5.21875 9.601562 5.21875 8.800781 6.019531 8.800781zM6.378906 11.601562L4.898438 11.601562C4.621094 11.601562 4.421875 11.800781 4.421875 12.039062L4.421875 13.519531C4.421875 13.800781 4.621094 14 4.898438 14L6.339844 14C6.621094 14 6.820312 13.800781 6.859375 13.558594L6.859375 12.078125C6.859375 11.800781 6.621094 11.601562 6.378906 11.601562zM6.019531 13.199219L5.21875 13.199219 5.21875 12.398438 6.019531 12.398438zM6.019531 13.199219"/>
    <path d="M 21.980469 13.601562 C 21.980469 12.71875 21.261719 12 20.378906 12 C 20.101562 12 19.820312 12.078125 19.578125 12.199219 L 19.578125 12 C 19.578125 11.121094 18.859375 10.398438 17.980469 10.398438 C 17.699219 10.398438 17.421875 10.480469 17.179688 10.640625 C 17.082031 9.953125 16.636719 9.429688 16.019531 9.257812 L 16.019531 1.601562 C 16.019531 0.71875 15.300781 0 14.421875 0 L 4.019531 0 C 3.140625 0 2.421875 0.71875 2.421875 1.601562 L 2.421875 3.601562 C 2.179688 3.601562 2.019531 3.761719 2.019531 4 L 2.019531 4.398438 C 2.019531 4.640625 2.179688 4.800781 2.421875 4.800781 L 2.421875 5.199219 C 2.179688 5.199219 2.019531 5.359375 2.019531 5.601562 L 2.019531 6 C 2.019531 6.238281 2.179688 6.398438 2.421875 6.398438 L 2.421875 6.800781 C 2.179688 6.800781 2.019531 6.960938 2.019531 7.199219 L 2.019531 7.601562 C 2.019531 7.839844 2.179688 8 2.421875 8 L 2.421875 22.398438 C 2.421875 23.28125 3.140625 24 4.019531 24 L 14.421875 24 C 14.519531 24 14.617188 24 14.714844 23.976562 C 14.839844 23.992188 14.96875 24 15.101562 24 L 18.179688 24 C 19.621094 24 20.980469 22.921875 21.261719 21.601562 C 21.378906 21.121094 21.5 20.921875 21.539062 20.878906 C 21.597656 20.816406 21.648438 20.742188 21.691406 20.652344 C 21.695312 20.648438 21.699219 20.644531 21.699219 20.640625 C 21.722656 20.601562 21.742188 20.558594 21.753906 20.515625 C 21.914062 20.097656 21.980469 19.453125 21.980469 18.480469 Z M 13.21875 5.601562 C 13.214844 5.601562 13.207031 5.601562 13.199219 5.601562 C 13.191406 5.601562 13.1875 5.601562 13.179688 5.601562 C 12.898438 5.601562 12.644531 5.660156 12.421875 5.765625 L 12.421875 5.199219 L 13.21875 5.199219 Z M 3.21875 1.601562 C 3.21875 1.160156 3.578125 0.800781 4.019531 0.800781 L 14.421875 0.800781 C 14.859375 0.800781 15.21875 1.160156 15.21875 1.601562 L 15.21875 2.398438 L 3.21875 2.398438 Z M 3.21875 3.199219 L 15.21875 3.199219 L 15.21875 9.238281 C 15.144531 9.257812 15.082031 9.277344 15.019531 9.300781 C 14.953125 9.324219 14.882812 9.351562 14.820312 9.382812 L 14.820312 7.121094 C 14.820312 6.523438 14.507812 6.039062 14.019531 5.785156 L 14.019531 4.839844 C 14.019531 4.558594 13.78125 4.359375 13.539062 4.359375 L 12.058594 4.359375 C 11.78125 4.359375 11.578125 4.601562 11.578125 4.839844 L 11.578125 6.320312 C 11.578125 6.425781 11.613281 6.519531 11.667969 6.59375 C 11.609375 6.757812 11.578125 6.933594 11.578125 7.121094 L 11.578125 13.671875 C 11 12.972656 10.054688 12.539062 9.152344 12.539062 C 8.84375 12.535156 8.542969 12.578125 8.261719 12.679688 C 8.058594 12.761719 7.941406 12.839844 7.820312 12.921875 C 7.339844 13.238281 7.339844 13.679688 7.339844 13.839844 C 7.300781 14 7.378906 14.078125 7.78125 14.558594 C 8.300781 15.199219 9.421875 16.480469 10.140625 17.761719 C 10.179688 17.835938 10.96875 19.023438 11.835938 20 L 3.21875 20 Z M 9.421875 22.800781 C 8.980469 22.800781 8.621094 22.441406 8.621094 22 C 8.621094 21.558594 8.980469 21.199219 9.421875 21.199219 C 9.859375 21.199219 10.21875 21.558594 10.21875 22 C 10.21875 22.441406 9.859375 22.800781 9.421875 22.800781 Z M 3.21875 22.398438 L 3.21875 20.800781 L 8.363281 20.800781 C 8.03125 21.09375 7.820312 21.523438 7.820312 22 C 7.820312 22.476562 8.03125 22.90625 8.363281 23.199219 L 4.019531 23.199219 C 3.578125 23.199219 3.21875 22.839844 3.21875 22.398438 Z M 10.476562 23.199219 C 10.808594 22.90625 11.019531 22.476562 11.019531 22 C 11.019531 21.523438 10.808594 21.09375 10.476562 20.800781 L 11.980469 20.800781 L 11.980469 20.921875 C 11.980469 21.84375 12.355469 22.644531 12.964844 23.199219 Z M 18.21875 23.199219 L 15.140625 23.199219 C 15.003906 23.199219 14.871094 23.1875 14.742188 23.167969 L 14.738281 23.160156 C 14.566406 23.136719 14.402344 23.09375 14.246094 23.03125 C 14.242188 23.03125 14.238281 23.03125 14.234375 23.03125 C 14.226562 23.027344 14.214844 23.019531 14.207031 23.015625 C 13.449219 22.703125 12.917969 22.007812 12.832031 21.164062 C 12.832031 21.160156 12.832031 21.15625 12.832031 21.152344 C 12.828125 21.121094 12.824219 21.089844 12.824219 21.054688 C 12.824219 21.050781 12.824219 21.042969 12.824219 21.035156 C 12.820312 21.015625 12.820312 20.992188 12.820312 20.96875 C 13.082031 21.1875 13.40625 21.371094 13.859375 21.441406 C 13.898438 21.441406 13.941406 21.441406 13.941406 21.441406 C 14.140625 21.441406 14.300781 21.28125 14.300781 21.121094 C 14.339844 20.921875 14.179688 20.71875 13.980469 20.679688 C 13.5 20.601562 13.21875 20.28125 12.898438 19.921875 C 12.878906 19.90625 12.859375 19.890625 12.839844 19.875 C 12.820312 19.816406 12.789062 19.769531 12.738281 19.71875 C 11.820312 18.761719 10.898438 17.359375 10.898438 17.359375 C 10.328125 16.3125 9.480469 15.242188 8.875 14.523438 C 8.726562 14.335938 8.597656 14.171875 8.5 14.039062 C 8.421875 13.960938 8.339844 13.839844 8.261719 13.761719 C 8.261719 13.71875 8.300781 13.679688 8.378906 13.601562 C 8.460938 13.519531 8.539062 13.480469 8.660156 13.441406 C 8.820312 13.378906 9.003906 13.351562 9.199219 13.347656 C 9.90625 13.355469 10.746094 13.738281 11.179688 14.480469 L 11.640625 15.292969 C 11.644531 15.316406 11.652344 15.339844 11.660156 15.359375 L 12.058594 16.160156 C 12.140625 16.320312 12.261719 16.398438 12.421875 16.398438 C 12.5 16.398438 12.539062 16.398438 12.578125 16.320312 C 12.738281 16.238281 12.820312 16 12.738281 15.800781 L 12.457031 15.238281 C 12.460938 15.226562 12.460938 15.210938 12.460938 15.199219 L 12.460938 7.121094 C 12.460938 6.648438 12.847656 6.40625 13.242188 6.402344 C 13.292969 6.402344 13.339844 6.40625 13.390625 6.414062 C 13.425781 6.421875 13.460938 6.429688 13.5 6.441406 L 13.609375 6.472656 C 13.84375 6.570312 14.019531 6.777344 14.019531 7.121094 L 14.019531 10.800781 C 14.019531 10.871094 14.035156 10.933594 14.058594 10.988281 L 14.058594 15.320312 C 14.058594 15.558594 14.21875 15.71875 14.460938 15.71875 C 14.699219 15.71875 14.859375 15.558594 14.859375 15.320312 L 14.859375 10.800781 C 14.859375 10.359375 15.21875 10 15.660156 10 C 16.101562 10 16.460938 10.320312 16.460938 10.800781 L 16.460938 14.921875 C 16.460938 15.160156 16.621094 15.320312 16.859375 15.320312 C 17.101562 15.320312 17.261719 15.160156 17.261719 14.921875 L 17.261719 12 C 17.261719 11.558594 17.621094 11.199219 18.058594 11.199219 C 18.5 11.199219 18.859375 11.558594 18.859375 12 L 18.859375 15.199219 C 18.859375 15.441406 19.019531 15.601562 19.261719 15.601562 C 19.5 15.601562 19.660156 15.441406 19.660156 15.199219 L 19.660156 13.601562 C 19.660156 13.160156 20.019531 12.800781 20.460938 12.800781 C 20.898438 12.800781 21.261719 13.160156 21.261719 13.601562 L 21.261719 18.480469 C 21.261719 19.339844 21.195312 19.816406 21.128906 20.082031 C 21.085938 20.109375 21.050781 20.152344 21.019531 20.199219 C 20.898438 20.359375 20.699219 20.398438 20.261719 20.480469 C 20.058594 20.519531 19.898438 20.558594 19.699219 20.601562 C 19.5 20.640625 19.378906 20.878906 19.421875 21.078125 C 19.5 21.238281 19.660156 21.359375 19.820312 21.359375 C 19.859375 21.359375 20.261719 21.359375 20.421875 21.320312 C 20.472656 21.308594 20.527344 21.296875 20.582031 21.28125 C 20.566406 21.332031 20.554688 21.386719 20.539062 21.441406 C 20.300781 22.398438 19.261719 23.199219 18.21875 23.199219 Z M 18.21875 23.199219"/>
</svg>

<svg xmlns="http://www.w3.org/2000/svg" width="32" height="32" viewBox="0 0 24 24">
    <path d="M8.46 6.8h1.481c.278 0 .48-.198.48-.48V4.84a.487.487 0 0 0-.48-.48h-1.48a.487.487 0 0 0-.48.48v1.48c0 .282.238.48.48.48zm.36-1.6h.801V6h-.8zm0 0M6.379 4.398h-1.48c-.278 0-.477.204-.477.442v1.48c0 .282.2.48.476.48H6.34c.281 0 .48-.198.52-.44V4.878a.488.488 0 0 0-.481-.48zM6.019 6h-.8v-.8h.8zm0 0M8.46 10.398h1.481c.278 0 .48-.199.48-.476v-1.48a.487.487 0 0 0-.48-.481h-1.48a.485.485 0 0 0-.48.48v1.48c0 .278.238.477.48.477zm.36-1.597h.801v.8h-.8zm0 0M6.379 8h-1.48c-.278 0-.477.2-.477.441v1.48c0 .278.2.477.476.477H6.34c.281 0 .48-.199.52-.437V8.48A.485.485 0 0 0 6.378 8zm-.36 1.602h-.8V8.8h.8zm0 0M6.379 11.602h-1.48c-.278 0-.477.199-.477.437v1.48c0 .282.2.481.476.481H6.34c.281 0 .48-.2.52-.441v-1.48a.484.484 0 0 0-.481-.477zm-.36 1.597h-.8v-.8h.8zm0 0"/>
    <path d="M21.98 13.602c0-.883-.718-1.602-1.601-1.602-.277 0-.559.078-.8.2V12c0-.879-.72-1.602-1.599-1.602-.28 0-.558.082-.8.243-.098-.688-.543-1.211-1.16-1.383V1.602C16.02.719 15.3 0 14.422 0H4.02c-.88 0-1.598.719-1.598 1.602v2c-.242 0-.402.16-.402.398v.398c0 .243.16.403.402.403v.398c-.242 0-.402.16-.402.403V6c0 .238.16.398.402.398v.403c-.242 0-.402.16-.402.398v.403c0 .238.16.398.402.398v14.398c0 .883.719 1.602 1.598 1.602h10.402c.098 0 .195 0 .293-.023.125.015.254.023.387.023h3.078c1.441 0 2.8-1.078 3.082-2.398.117-.48.238-.68.277-.723a.884.884 0 0 0 .152-.227c.004-.004.008-.007.008-.011a.507.507 0 0 0 .055-.125c.16-.418.226-1.063.226-2.036zm-8.761-8h-.04c-.28 0-.534.058-.757.164v-.567h.797zm-10-4c0-.442.36-.801.8-.801h10.403c.437 0 .797.36.797.8v.797h-12zm0 1.597h12v6.04c-.074.019-.137.038-.2.062-.066.023-.136.05-.199.082V7.12c0-.598-.312-1.082-.8-1.336V4.84a.485.485 0 0 0-.48-.48h-1.481a.49.49 0 0 0-.48.48v1.48c0 .106.034.2.089.274-.059.164-.09.34-.09.527v6.55c-.578-.698-1.523-1.132-2.426-1.132a2.52 2.52 0 0 0-.89.14c-.203.083-.32.16-.442.243-.48.316-.48.758-.48.918-.04.16.039.238.441.719.52.64 1.64 1.921 2.36 3.203.039.074.828 1.261 1.695 2.238H3.219zm6.203 19.602a.802.802 0 0 1 0-1.602.801.801 0 0 1 0 1.602zm-6.203-.403v-1.597h5.144a1.598 1.598 0 0 0 0 2.398H4.02c-.442 0-.801-.36-.801-.8zm7.258.801a1.598 1.598 0 0 0 0-2.398h1.503v.12c0 .923.375 1.724.985 2.278zm7.742 0H15.14c-.137 0-.27-.012-.399-.031l-.004-.008a2.075 2.075 0 0 1-.492-.129h-.012l-.027-.015a2.231 2.231 0 0 1-1.375-1.852v-.012c-.004-.03-.008-.062-.008-.097v-.02c-.004-.02-.004-.043-.004-.066.262.218.586.402 1.04.472h.081c.2 0 .36-.16.36-.32.039-.2-.121-.402-.32-.441-.481-.078-.762-.399-1.083-.758l-.058-.047a.385.385 0 0 0-.102-.156c-.918-.957-1.84-2.36-1.84-2.36-.57-1.047-1.418-2.117-2.023-2.836a18.58 18.58 0 0 1-.375-.484c-.078-.078-.16-.2-.238-.277 0-.043.039-.082.117-.16a.626.626 0 0 1 .281-.16c.16-.063.344-.09.54-.094.706.007 1.546.39 1.98 1.132l.46.813a.33.33 0 0 0 .02.066l.399.801c.082.16.203.238.363.238.078 0 .117 0 .156-.078.16-.082.242-.32.16-.52l-.281-.562c.004-.011.004-.027.004-.039V7.121c0-.473.387-.715.781-.719a.95.95 0 0 1 .149.012c.035.008.07.016.109.027l.11.032c.234.097.41.304.41.648v3.68c0 .07.015.133.039.187v4.332c0 .239.16.399.402.399.238 0 .398-.16.398-.399V10.8c0-.44.36-.8.801-.8.442 0 .8.32.8.8v4.122c0 .238.161.398.4.398.242 0 .402-.16.402-.398V12c0-.441.36-.8.797-.8.441 0 .8.359.8.8v3.2c0 .241.16.402.403.402.238 0 .398-.16.398-.403v-1.597c0-.442.36-.801.8-.801.438 0 .802.36.802.8v4.88c0 .859-.067 1.335-.133 1.601a.395.395 0 0 0-.11.117c-.12.16-.32.2-.757.281-.203.04-.364.079-.563.122-.199.039-.32.277-.277.476.078.16.238.281.398.281.04 0 .442 0 .602-.039.05-.011.105-.023.16-.039-.016.051-.027.106-.043.16-.238.957-1.277 1.758-2.32 1.758zm0 0"/>
</svg>
